X: 64
T: Gunboat
B: canberra pickers and fiddlers
B: old time tunes update
B: tunes
M:C|
L:1/8
R: Reel
Q: 1/4=100
K:A
V:1 
(AB | c2) c2 cdcB | A(FF)(F A2) (AB) | (ce)ee (ef)ec | B(A[A)A](A [A2)A2] (AB) |
c2 cc (cd)cB | A(FF)(F A2) (AF) | E2 CC (EF)E(C | B,)(A,[A,)E](A, [A,2)E2] AF ||
|:E2 C2C2 (AF) | E(C[C)E](C [C2)E2] (AF) | E2C2 (EF)EC |1 B,(A,[A,)E](A, [A,2)E2] AF :|2B,(A,[A,)E](A, [A,4)E4] ||
% abcbook-tune_id 67a7d9ecb0a4a4524c3e4385
% abcbook-tune_composer_id 
% abcbook-link-0 https://www.youtube.com/watch?v=qH3umA4i6MU
% abcbook-link-title-0 Sami Braman - Old time fiddler plays  “Gunboat”
% abcbook-boost 0
% abcbook-difficulty 0
% abcbook-tags old time tunes
% abcbook-tablature 
% abcbook-transpose 
% abcbook-tuning AEAE
% abcbook-lastupdated 1739164864710
% abcbook-src-url 
% abcbook-soundfonts 
% abcbook-repeats 1


